Dominus_Funeral/22/places/folder-mail.svg

<svg xmlns="http://www.w3.org/2000/svg" width="24" height="24" viewBox="0 0 12.7 12.7"><defs><linearGradient id="a"><stop offset="0" stop-color="#216778"/><stop offset="1" stop-color="#5fbcd3"/></linearGradient></defs><path d="M7.674 3.398c-.47.724-.941 1.34-1.412 1.737l-.362.362-.036-.29c-.036-.325-.254-.723-.362-.76-.073 0-.145.073-.218.29-.108.254-.144.29-.362.362a1.34 1.34 0 0 0-.362.109c-.18.108-.253.108-.506.072-.362-.036-.362 0-.254.29l.073.18-1.304-.506c-.687-.362-.651-.362-.724-.181l-.47.543a6.516 6.516 0 0 0-.87 3.512l.037.687.253-.362c.399-.724.58-.977.978-1.267.724-.543 1.086-.651 1.448-.47.109.072.362.108.833.108 1.013 0 1.448.145 1.412.507-.073.254 0 .29.217.109.108-.145.18-.181.29-.181.217 0 .832.217 1.158.362.362.18.398.145.29-.217-.11-.362-.073-.87.072-1.087.072-.108.108-.108.29-.072.217 0 .217 0 .217-.072l-.037-.181c-.144-.145.58-.833 1.123-1.086.217-.109.362-.254.47-.362.145-.254.145-.254.47-.254.435 0 1.196.145 1.449.254a2.172 2.172 0 0 1 .434.362l.29.253v-.326c0-.905-.941-1.81-2.607-2.498-.362-.145-.506-.217-.506-.326-.037-.217-.181-.108-.543.435z" fill="#1a1a1a"/></svg>

<?xml version="1.0" encoding="UTF-8" standalone="no"?>
<svg
   xmlns:dc="http://purl.org/dc/elements/1.1/"
   xmlns:cc="http://creativecommons.org/ns#"
   xmlns:rdf="http://www.w3.org/1999/02/22-rdf-syntax-ns#"
   xmlns:svg="http://www.w3.org/2000/svg"
   xmlns="http://www.w3.org/2000/svg"
   xmlns:sodipodi="http://sodipodi.sourceforge.net/DTD/sodipodi-0.dtd"
   xmlns:inkscape="http://www.inkscape.org/namespaces/inkscape"
   width="24"
   height="24"
   viewBox="0 0 12.7 12.7"
   version="1.1"
   id="svg11"
   sodipodi:docname="folder-mail.svg"
   inkscape:version="0.92.4 (5da689c313, 2019-01-14)">
  <metadata
     id="metadata15">
    <rdf:RDF>
      <cc:Work
         rdf:about="">
        <dc:format>image/svg+xml</dc:format>
        <dc:type
           rdf:resource="http://purl.org/dc/dcmitype/StillImage" />
        <dc:title></dc:title>
      </cc:Work>
    </rdf:RDF>
  </metadata>
  <sodipodi:namedview
     pagecolor="#ffffff"
     bordercolor="#666666"
     borderopacity="1"
     objecttolerance="10"
     gridtolerance="10"
     guidetolerance="10"
     inkscape:pageopacity="0"
     inkscape:pageshadow="2"
     inkscape:window-width="1112"
     inkscape:window-height="480"
     id="namedview13"
     showgrid="false"
     inkscape:zoom="9.8333333"
     inkscape:cx="1.0677966"
     inkscape:cy="12"
     inkscape:window-x="0"
     inkscape:window-y="25"
     inkscape:window-maximized="0"
     inkscape:current-layer="svg11" />
  <defs
     id="defs7">
    <linearGradient
       id="a">
      <stop
         offset="0"
         stop-color="#216778"
         id="stop2" />
      <stop
         offset="1"
         stop-color="#5fbcd3"
         id="stop4" />
    </linearGradient>
  </defs>
  <path
     d="M 7.674,3.398 C 7.204,4.122 6.733,4.738 6.262,5.135 L 5.9,5.497 5.864,5.207 C 5.828,4.882 5.61,4.484 5.502,4.447 5.429,4.447 5.357,4.52 5.284,4.737 5.176,4.991 5.14,5.027 4.922,5.099 A 1.34,1.34 0 0 0 4.56,5.208 C 4.38,5.316 4.307,5.316 4.054,5.28 3.692,5.244 3.692,5.28 3.8,5.57 L 3.873,5.75 2.569,5.244 C 1.882,4.882 1.918,4.882 1.845,5.063 L 1.375,5.606 A 6.516,6.516 0 0 0 0.505,9.118 L 0.542,9.805 0.795,9.443 C 1.194,8.719 1.375,8.466 1.773,8.176 2.497,7.633 2.859,7.525 3.221,7.706 3.33,7.778 3.583,7.814 4.054,7.814 c 1.013,0 1.448,0.145 1.412,0.507 -0.073,0.254 0,0.29 0.217,0.109 0.108,-0.145 0.18,-0.181 0.29,-0.181 0.217,0 0.832,0.217 1.158,0.362 0.362,0.18 0.398,0.145 0.29,-0.217 C 7.311,8.032 7.348,7.524 7.493,7.307 7.565,7.199 7.601,7.199 7.783,7.235 8,7.235 8,7.235 8,7.163 L 7.963,6.982 C 7.819,6.837 8.543,6.149 9.086,5.896 9.303,5.787 9.448,5.642 9.556,5.534 9.701,5.28 9.701,5.28 10.026,5.28 c 0.435,0 1.196,0.145 1.449,0.254 a 2.172,2.172 0 0 1 0.434,0.362 l 0.29,0.253 V 5.823 C 12.199,4.918 11.258,4.013 9.592,3.325 9.23,3.18 9.086,3.108 9.086,2.999 9.049,2.782 8.905,2.891 8.543,3.434 Z"
     id="path9"
     inkscape:connector-curvature="0"
     style="fill:#1a1a1a" />
</svg>
